src/components/Theme/assets/onfido-logo.svg

<svg width="67" height="32" viewBox="0 0 67 32" fill="none" xmlns="http://www.w3.org/2000/svg">
<path fill-rule="evenodd" clip-rule="evenodd" d="M44.9082 8.30664C45.1122 8.10221 45.3622 8 45.648 8C45.9337 8 46.1837 8.10732 46.3877 8.30664C46.5918 8.51106 46.6939 8.76148 46.6939 9.04768C46.6939 9.33898 46.5918 9.58429 46.3877 9.78871C46.1837 9.99314 45.9337 10.0954 45.648 10.0954C45.3571 10.0954 45.1122 9.99314 44.9082 9.78871C44.7041 9.58429 44.602 9.33387 44.602 9.04768C44.602 8.75637 44.7041 8.51106 44.9082 8.30664ZM46.3367 11.6796H44.9643V19.8055H46.3367V11.6796ZM51.8214 11.4548C52.9643 11.4548 54.051 11.9505 54.8316 12.8193V8.38329H56.2041V19.8055H54.8316V18.6658C54.051 19.5346 52.9643 20.0304 51.8214 20.0304C49.551 20.0304 47.7041 18.1037 47.7041 15.7426C47.7041 13.3815 49.551 11.4548 51.8214 11.4548ZM51.9081 18.7323C53.4949 18.7323 54.7908 17.3933 54.7908 15.7426C54.7908 14.0918 53.4949 12.7529 51.9081 12.7529C50.3214 12.7529 49.0255 14.0918 49.0255 15.7426C49.0255 17.3933 50.3163 18.7323 51.9081 18.7323ZM57.4388 15.7426C57.4388 13.3815 59.3571 11.4548 61.7194 11.4548C64.0816 11.4548 66 13.3815 66 15.7426C66 18.1037 64.0765 20.0304 61.7194 20.0304C59.3622 20.0304 57.4388 18.1037 57.4388 15.7426ZM61.7194 18.7323C63.3061 18.7323 64.602 17.3933 64.602 15.7426C64.602 14.0918 63.3112 12.7529 61.7194 12.7529C60.1326 12.7529 58.8367 14.0918 58.8367 15.7426C58.8367 17.3933 60.1275 18.7323 61.7194 18.7323ZM41.0561 10.0749V11.6796H43.3775V12.9522H41.0561V19.8106H39.6837V12.9573H38.1633V11.6847H39.6837V10.0494C39.6837 8.97612 40.5561 8.10221 41.6275 8.10221H43.3775V9.35431H41.7755C41.3775 9.35431 41.0561 9.67628 41.0561 10.0749ZM34.1122 11.4548C32.9133 11.4548 32.0153 11.9403 31.4949 12.8551V11.6796H30.1224V19.8055H31.4949V15.579C31.4949 14.7256 31.7092 14.0356 32.1327 13.5246C32.5561 13.0186 33.1429 12.7631 33.8878 12.7631C34.5102 12.7631 35.0153 12.9675 35.3775 13.3713C35.7398 13.7801 35.9286 14.4036 35.9286 15.2213V19.8004H37.301V14.9607C37.301 13.8005 37.0204 12.9113 36.4643 12.3287C35.9235 11.7665 35.0867 11.4548 34.1122 11.4548ZM20.25 15.7426C20.25 13.3815 22.1684 11.4548 24.5306 11.4548C26.8929 11.4548 28.8112 13.3815 28.8112 15.7426C28.8112 18.1037 26.8929 20.0304 24.5306 20.0304C22.1735 20.0304 20.25 18.1037 20.25 15.7426ZM24.5357 18.7323C26.1224 18.7323 27.4184 17.3933 27.4184 15.7426C27.4184 14.0918 26.1224 12.7529 24.5357 12.7529C22.949 12.7529 21.6531 14.0918 21.6531 15.7426C21.6531 17.3933 22.9439 18.7323 24.5357 18.7323Z" fill="#636670"/>
<path fill-rule="evenodd" clip-rule="evenodd" d="M10.1602 15.5193C10.1602 16.9918 8.96957 18.1854 7.50085 18.1854C6.03214 18.1854 4.84151 16.9918 4.84151 15.5193C4.84151 14.0469 6.03214 12.8533 7.50085 12.8533C8.96957 12.8533 10.1602 14.0469 10.1602 15.5193ZM3.59612 21.0414C3.74108 20.9412 3.88604 20.841 4.041 20.7508C6.37537 19.3476 9.18961 19.4428 11.364 20.7608C11.449 20.8109 11.449 20.9312 11.369 20.9863C11.3479 20.9999 11.3267 21.0136 11.3054 21.0274C11.1853 21.105 11.0622 21.1846 10.9391 21.2569C10.1444 21.733 9.29459 22.1389 8.40982 22.4546C7.81498 22.6701 7.19515 22.8455 6.55032 22.9908C5.94549 23.1261 5.31066 22.9658 4.84078 22.5649C4.3859 22.174 3.96102 21.7631 3.56613 21.3421C3.48115 21.2519 3.49614 21.1116 3.59612 21.0414Z" fill="#636670"/>
<path fill-rule="evenodd" clip-rule="evenodd" d="M10.9591 10.2872C11.114 10.197 11.259 10.0967 11.404 9.99652C11.5039 9.92636 11.5189 9.78605 11.4339 9.69584C11.0391 9.27489 10.6142 8.86397 10.1593 8.47308C9.68941 8.07218 9.05458 7.91182 8.44975 8.04712C7.80492 8.19245 7.18509 8.36785 6.59025 8.58333C5.70548 8.89904 4.85571 9.30496 4.06093 9.78104C3.93783 9.85338 3.81473 9.93295 3.69469 10.0105L3.63104 10.0516C3.55106 10.1068 3.55106 10.227 3.63604 10.2772C5.81046 11.5951 8.6247 11.6903 10.9591 10.2872ZM2.2814 12.0512C2.19143 11.8958 2.09146 11.7505 1.99148 11.6052L1.99148 11.6052C1.9215 11.5049 1.78154 11.4899 1.69156 11.5751C1.27167 11.971 0.861784 12.3969 0.471889 12.853C0.0719963 13.324 -0.0879607 13.9605 0.047003 14.5668C0.191964 15.2133 0.366917 15.8347 0.581859 16.431C0.896775 17.318 1.30167 18.17 1.77654 18.9668C1.8487 19.0902 1.92806 19.2136 2.00545 19.3339L2.04647 19.3977C2.10145 19.4779 2.22142 19.4779 2.27141 19.3927C3.58605 17.2128 3.68103 14.3914 2.2814 12.0512ZM13.0085 19.4328C12.9085 19.2875 12.8086 19.1422 12.7186 18.9868C11.319 16.6465 11.4139 13.8252 12.7286 11.6452C12.7786 11.5601 12.8985 11.5601 12.9535 11.6402C12.9671 11.6614 12.9808 11.6827 12.9945 11.704C13.0719 11.8244 13.1513 11.9478 13.2235 12.0712C13.6983 12.868 14.1032 13.7199 14.4181 14.6069C14.6331 15.2033 14.808 15.8247 14.953 16.4711C15.088 17.0775 14.928 17.7139 14.5281 18.185C14.1382 18.641 13.7283 19.067 13.3084 19.4629C13.2185 19.5481 13.0785 19.533 13.0085 19.4328Z" fill="#636670"/>
</svg>

<svg xmlns="http://www.w3.org/2000/svg" width="67" height="32" fill="#636670" fill-rule="evenodd" xmlns:v="https://vecta.io/nano"><path d="M44.908 8.307a1.01 1.01 0 0 1 .74-.307 1.03 1.03 0 0 1 .74.307c.204.204.306.455.306.74s-.102.537-.306.74a1.01 1.01 0 0 1-.74.307c-.3 0-.536-.102-.74-.307s-.306-.455-.306-.74.102-.537.306-.74zm1.428 3.373h-1.372v8.126h1.372V11.68zm5.485-.225a4.01 4.01 0 0 1 3 1.364V8.383h1.372v11.422H54.82v-1.14c-.78.87-1.867 1.365-3 1.365-2.27 0-4.117-1.927-4.117-4.288s1.847-4.288 4.117-4.288zm.087 7.277c1.587 0 2.883-1.34 2.883-3s-1.296-3-2.883-3-2.883 1.34-2.883 3 1.3 3 2.883 3zm5.53-3a4.29 4.29 0 0 1 4.281-4.288A4.29 4.29 0 0 1 66 15.743c0 2.36-1.924 4.288-4.28 4.288s-4.28-1.927-4.28-4.288zm4.28 3c1.587 0 2.883-1.34 2.883-3s-1.3-3-2.883-3-2.883 1.34-2.883 3 1.3 3 2.883 3zm-20.663-8.657v1.605h2.32v1.273h-2.32v6.858h-1.372v-6.853h-1.52v-1.273h1.52V10.05a1.95 1.95 0 0 1 1.944-1.947h1.75v1.252h-1.602a.72.72 0 0 0-.719.721zm-6.944 1.38c-1.2 0-2.097.486-2.617 1.4V11.68H30.12v8.126h1.373V15.58c0-.853.214-1.543.638-2.054.423-.506 1-.76 1.755-.76.622 0 1.128.204 1.5.608s.55 1.032.55 1.85v4.58H37.3v-4.84c0-1.16-.28-2.05-.837-2.632-.54-.562-1.378-.874-2.352-.874zm-13.86 4.288a4.29 4.29 0 0 1 4.281-4.288 4.29 4.29 0 0 1 4.281 4.288 4.29 4.29 0 0 1-4.281 4.288c-2.357 0-4.28-1.927-4.28-4.288zm4.286 3c1.587 0 2.883-1.34 2.883-3s-1.296-3-2.883-3-2.883 1.34-2.883 3 1.3 3 2.883 3zM10.16 15.52c0 1.473-1.2 2.666-2.66 2.666s-2.66-1.194-2.66-2.666 1.2-2.666 2.66-2.666 2.66 1.194 2.66 2.666zm-6.564 5.52l.445-.3c2.334-1.403 5.15-1.308 7.323.01.085.05.085.17.005.226l-.064.04-.366.23a14.26 14.26 0 0 1-2.529 1.198 15.37 15.37 0 0 1-1.859.536 1.95 1.95 0 0 1-1.7-.426 16.29 16.29 0 0 1-1.275-1.223c-.085-.1-.07-.23.03-.3zm7.364-10.753l.445-.3c.1-.07.115-.2.03-.3a16.44 16.44 0 0 0-1.275-1.223 1.97 1.97 0 0 0-1.7-.426c-.645.145-1.265.32-1.86.536a14.3 14.3 0 0 0-2.53 1.198l-.43.27c-.08.055-.08.175.005.226 2.174 1.318 5 1.413 7.323.01zM2.28 12.05a6.79 6.79 0 0 0-.29-.446h0c-.07-.1-.2-.115-.3-.03-.42.396-.83.822-1.22 1.278-.4.47-.56 1.108-.425 1.714A15.47 15.47 0 0 0 .58 16.43a14.31 14.31 0 0 0 1.195 2.536l.27.43c.055.08.175.08.225-.005 1.315-2.18 1.4-5 .01-7.342zm10.727 7.382l-.3-.446c-1.4-2.34-1.305-5.162.01-7.342.05-.085.17-.085.225-.005l.04.064.23.367a14.34 14.34 0 0 1 1.195 2.536 13.84 13.84 0 0 1 .535 1.864c.135.606-.025 1.243-.425 1.714a16.47 16.47 0 0 1-1.22 1.278c-.1.085-.23.07-.3-.03z"/></svg>
